X: 7367
T: Cliffs, The
R: hornpipe
M: 4/4
K: Dmajor
(3FED|DFAF DGBG|FAde fdAF|GBef gfgf|(3efe (3dcB (3ABA (3GFE|
DFAF DGBG|FAde fdAF|GBef gfgf|(3efe dc d2:|
(3Bcd|eA (3AAA FA (3AAA|(3efg fg eA (3AAA|(3efg fa gfgf|(3efe (3dcB (3ABA (3GFE|
DFAF DGBG|FAde fdAF|GBef gfgf|(3efe dc d2:|

